map/src/routing/resources/instruction-line-arrow.svg

<svg xmlns="http://www.w3.org/2000/svg" width="50" height="50">
    <path d="M1.562 40.569L25 1.562l23.438 39.007L25 27.566 1.562 40.569z" fill="#fff"/>
    <path d="M25.369.107c.782.429.506.167.917.682l23.438 39.007c.79 1.316-.671 2.829-2.014 2.085L25 29.281l-22.71 12.6c-1.343.744-2.804-.769-2.014-2.085L23.714.789c.461-.694.9-.682 1.656-.682zM25 1.562L1.562 40.569 25 27.566l23.438 13.003L25 1.562z"
          fill="gray"/>
</svg>

<svg xmlns="http://www.w3.org/2000/svg" x="0" y="0" width="50" height="50" viewBox="0, 0, 50, 50">
    <path d="M1.562,40.569 L25,1.562 L48.438,40.569 L25,27.566 L1.562,40.569 z" fill="#FFFFFF"/>
    <path d="M25.369,0.107 C26.151,0.536 25.875,0.274 26.286,0.789 L49.724,39.796 C50.514,41.112 49.053,42.625 47.71,41.881 L25,29.281 L2.29,41.881 C0.947,42.625 -0.514,41.112 0.276,39.796 L23.714,0.789 C24.175,0.095 24.614,0.107 25.37,0.107 z M25,1.562 L1.562,40.569 L25,27.566 L48.438,40.569 L25,1.562 z"
          fill="#808080"/>
</svg>
